X: 3664
T: Billy Ballantine's
R: hornpipe
M: 4/4
K: Emajor
B,EF|:G2 BG AGFE|(3CDE ED CB,G,A,|B,G,B,C B,CEF|GFFE F2 EF|
G2 BG AGFE|(3CDE ED CB,G,A,|B,G,B,C B,CEF|GEED E2 EF:|
|:GEBE G2 FG|AFBF A2 (3GA_B|B2 Bc BGEF|GFFE F2 EF|
G2 BG AGFE|(3CDE ED CB,G,A,|B,G,B,C B,CEF|GEED E2 EF:|

